X: 21820
T: Kinnegad Slashers, The
R: jig
M: 6/8
K: Dmajor
A|ded dAF|ABA ABc|dAF DFA|Bee gfe|
ded dAF|ABA a2g|fef dBA|Bdc d2:|
A|dfa afd|cde ecA|dfa afd|a^ga b=ge|
dfa afd|cde eag|fef dBA|Bdc d2:|

